build/assets/img/catalog-section-line1.svg

<svg width="1920" height="46" viewBox="0 0 1920 46" fill="none" xmlns="http://www.w3.org/2000/svg">
<path d="M0 13.7778L59.3611 12.6368C118.722 11.4097 237.444 9.25694 356.167 16.0812C474.889 23.0347 593.611 38.9653 712.333 37.8889C831.056 36.8125 949.778 18.2986 1068.5 9.19236C1187.22 -9.53674e-07 1305.94 -9.53674e-07 1424.67 9.19236C1543.39 18.2986 1662.11 36.8125 1780.83 36.7479C1899.56 36.8125 2018.28 18.2986 2077.64 9.19236L2137 0V62H2077.64C2018.28 62 1899.56 62 1780.83 62C1662.11 62 1543.39 62 1424.67 62C1305.94 62 1187.22 62 1068.5 62C949.778 62 831.056 62 712.333 62C593.611 62 474.889 62 356.167 62C237.444 62 118.722 62 59.3611 62H0V13.7778Z" fill="#F1E7B2"/>
</svg>

<svg width="1920" height="46" fill="none" xmlns="http://www.w3.org/2000/svg"><path d="M0 13.778l59.361-1.141c59.361-1.227 178.083-3.38 296.806 3.444 118.722 6.954 237.444 22.884 356.166 21.808 118.723-1.077 237.445-19.59 356.167-28.697a2303.492 2303.492 0 01356.17 0c118.72 9.107 237.44 27.62 356.16 27.556 118.73.065 237.45-18.45 296.81-27.556L2137 0v62H0V13.778z" fill="#F1E7B2"/></svg>
